X: 146
T: Little Beggarman
M:4/4
R:reel
L:1/8
Z:added by Alf warnock alf0@rogers.com - www.alfwarnock.info/alfs
K:A
AF|"A"E2A2 ABcd|efec "G"d2cd|"A"edcB ABcA|"Em"BAEF "G"=G3F|
"A"E2A2 ABcd|efec "G"d2cd|"A"e2ag afed|"E"c2A2 "A"A2AF||
"G"=gfef =gfef|"Em"=gfec "G"d2cd|"A"edcB ABcA|"Em"BAEF "G"=G3F|
"A"E2A2 ABcd|efec "G"d2cd|"A"e2ag afed|"G"c2A2 "A"A2||

